X:1
T:Game of Love
M:C|
L:1/8
R:reel
Z:Ken Fleming <ken1gd@flash.net>
D:Touchstone "New Land"
D:Dervish "Playing With Fire"
K:EDor
|: B2EF GFGB | AD (3FED FA (3AAA | B2EF GABc | dcBA Beef |
|  e2EF GABc | dD (3FED FA (3AAA | ~B3A GABc | dcBA BE (3EGE :|
|: Beed egfe | defg afdf | eBBA Bgfe | dcBA BE (3EGE |
|  Beed egfe | defg ae (3fga | gefg fdef | edBA BE (3EGE :|
